X:400
T:Windsor Castle. (p)1698.PLFD.400
M:6/4
L:1/4
Q:3/4=90
S:Playford, Dancing Master,9th Ed,extra Supplement(9D),1698
O:England
H:1698.
Z:Chris Partington.
K:Bb
d|g>agf/g/ad|g>abc'ab|f2aa2d|c>de(fd)e|
cAB^F>GA|A2GG2:||:B/c/|d>cdc>BA|e>decfe|
d2BB2f|dgf=efg|fgagab|a2gg2:|
